X: 7393
T: Clocktower, The
R: hornpipe
M: 4/4
K: Dmajor
|:(3ABc|dFFE FABc|dFFE A2 (3ABc|dcde fgfe|dB (3cBA B2 BA|
(3GFE DE GABG|AG (3EFG ABcA|Bcde fgfe|dB (3cBA B2:|
|:(3ABc|dcde fgaf|dcdf ecAc|BF ~F2 BcdB|cdec dcBA|
dcde fgaf|dcdf ecAF|(3GFE DE GABG|AB (3cBA B2:|

